X:77
T:Earl Aboyne
Z:Jack Campin - http://www.campin.me.uk
S:Blaikie MS (NLS MS.1578) p23, Blaikie #71
M:2/4
L:1/16
V:1 midi program 1 74
V:2 midi program 1 46 bass middle = d transpose -24
Q:1/4=70
K:Eb
[V:1] E2|E3G`B3`c|BGFG B3`B|cdef edcB |FG  B4
[V:2] z2|E4  e4  |E4   e4  |a4   g4   |b4     B2
%
[V:1] cd|e3G eeec|BGFE F2GB|ce2c BGBB,|B,C E4   |]
[V:2] z2|e4  g2a2|e2E2 B2b2|a2z2 d2z2 |E4     e2|]
W:Transcription (c) Jack Campin 2009, no mirroring or republication without permission

